X: 34431
T: Rickett's
R: hornpipe
M: 4/4
K: Dmajor
|:(3ABc|dcdA FAdf|edcB A2 fg|afaf bagf|edcB A2 fe|
dcdA FAdf|edcB A2 fg|afdg bgec|d2 d2 d2:|
|:(3efg|afaf d2 ga|bgbg e2 fg|afaf bagf|edcB A2 fe|
dcdA FAdf|edcB A2 fg|afdg bgec|d2 d2 d2:|

